!!!!SEGMENT: pl-wn--sd-xvi-qu-273--099_gomolka-mikolaj--pan-kroluje-ktory-wlada-anioly-lotnemi.krn
!!!cenid: 15xx:304
!!!COM: Gomółka, Mikołaj
!!!COM-rismid: pe30013343
!!!CDT: ~1535->1591/04/30
!!!CNT: Polish
!!!GTL: Melodiae na psalterz polski
!!!OTL: XCIX. Pan króluje, który włada anioły lotnemi:
!!!ONB: Ps. XCIX. Dominus regnavit, irascantur populi: qui sedet super Cherubin, moveatur terra.
!!!PDT: 1580
!!!AGN: Sacred
!!!SMS-siglum: PL-Wn
!!!SMS-shelfmark: SD XVI.Qu.273
!!!SMS-shelfwork: 099 G
!!!NIFC-rismid:
!!!ONB-nifc: Melodiae na psalterz polski
**kern	**text	**kern	**text	**kern	**text	**kern	**text
*part4	*part4	*part3	*part3	*part2	*part2	*part1	*part1
*staff4	*staff4	*staff3	*staff3	*staff2	*staff2	*staff1	*staff1
*clefF4	*	*clefC4	*	*clefC3	*	*clefC1	*
*k[b-]	*	*k[b-]	*	*k[b-]	*	*k[b-]	*
*F:	*	*F:	*	*F:	*	*F:	*
*M2/1	*	*M2/1	*	*M2/1	*	*M2/1	*
*met(C|)	*	*met(C|)	*	*met(C|)	*	*met(C|)	*
*I"BASSUS.	*	*I"TENOR.	*	*I"ALTUS.	*	*I"CANTUS.	*
*>[A,A,B]	*	*>[A,A,B]	*	*>[A,A,B]	*	*>[A,A,B]	*
=1-	=1	=1-	=1	=1-	=1	=1-	=1
*>A	*	*>A	*	*>A	*	*>A	*
*	*^	*	*^	*	*^	*	*^
1FF/	PAn	Lę-	1F/	PAn	Lę-	2.A/	PAn	Lę-	1c/	PAn	Lę-
.	.	.	.	.	.	4B-/	kró-	-kay-	.	.	.
4FF/	kró-	-kay-	2A/	kró-	-kay-	2c/	-lu-	-ćie	2f/	kró-	-kay
4GG/	.	.	.	.	.	.	.	.	.	.	.
4AA/	-lu-	-ćie	2A/	-lu-	-ćie	2c/	-ie,	sye,	2f/	-lu-	-ćie
4BB-/	.	.	.	.	.	.	.	.	.	.	.
=2-	=2	=2	=2-	=2	=2	=2-	=2	=2	=2-	=2	=2
2C/	-ie,	sye,	2G/	-ie,	sye,	2.c/	któ-	páń-	2e/	-ie,	sye,
2F\	któ-	páń-	4A\0	któ-	páń-	.	.	.	2a\	któ-	páń-
.	.	.	4B-\	.	.	4d\	-ry	-(stwa)	.	.	.
2E\	-ry	-(stwa)	2c\	-ry	-(stwa)	2e\	wła-	wiel-	2g/	-ry	-(stwa)
2E\	wła-	wiel-	2G/	wła-	wiel-	2c/	.	.	2g/	wła-	wiél-
=3-	=3	=3	=3-	=3	=3	=3-	=3	=3	=3-	=3	=3
2D/	-da	-(kie)	2.B-\	-da	-(kie)	2.d\	-da	-(kie)	2f/	-da	-(kie)
1BB-/	A-	bóy	.	.	.	.	.	.	2.b-\	A-	bóy
.	.	.	4A/	.	.	4c/	.	.	.	.	.
.	.	.	4G/	A-	bóy	2B-/	A-	bóy	.	.	.
.	.	.	4F/	.	.	.	.	.	4a\	.	.
2BB-/	-nyo-	sye	4E/	-nyo-	sye	2B-/	-nyo-	sye	4g/	-nyo-	sye
.	.	.	4D/	.	.	.	.	.	4f/	.	.
=4-	=4	=4	=4-	=4	=4	=4-	=4	=4	=4-	=4	=4
2C/	-ły	wszyt-	2E/	-ły	wszyt-	2G/	-ły	wszyt-	2e/	-ły	wszyt-
2AA/	lo-	-(ká)	2A/	lo-	-(ká)	2c/	lo-	-ká	1f/	lo-	-(ka)
2BB-/	-tné-	źie-	2G/	.	.	2d\	-tné-	źie-	.	.	.
2C/	.	.	2G/	-tné-	źie-	4c/	.	.	2e/	-tné-	źie-
.	.	.	.	.	.	4B-/	.	.	.	.	.
=5-	=5	=5	=5-	=5	=5	=5-	=5	=5	=5-	=5	=5
1FF/	mi	-mi.	1F/	-mi:	-mi.	1A/	-mi:	-mi.	1f/	-mi:	-mi.
*	*v	*v	*	*v	*v	*	*v	*v	*	*v	*v
=:|!	=	=:|!	=	=:|!	=	=:|!	=
*>B	*	*>B	*	*>B	*	*>B	*
1F\	Wiel-	1c\	Wiel-	1f\	Wiel-	1a\	Wiel-
=6-	=6	=6-	=6	=6-	=6	=6-	=6
2.D/	-ki	2.d\	-ki	2.f\	-ki	2.a\	-ki
4D/	to	4c\	to	4e\	to	4a\	to
2.G\	pan	2.B-\	pan	2d\	pan	2.g\	pan
.	.	.	.	2d\	ná	.	.
4F\	ná	4A\	ná	.	.	4a\	ná
=7-	=7	=7-	=7	=7-	=7	=7-	=7
!!LO:PB:g=original
2E-X\	Sio-	4G/	Si-	2e-X\	Si-	2b-\	Si-
.	.	4A/	-o-	.	.	.	.
2BB-/	-nie,	2B-\	-nie,	4d\	-o-	2b-\	-o-
.	.	.	.	4e-\	-nie,	.	.
2F\	pan	2c\	pan	2f\	pan	2a\	-nie,
2C/	nie-	2c\	nie-	2e-\	nie-	2g/	pan
=8-	=8	=8-	=8	=8-	=8	=8-	=8
2D/	-zwy-	2A/	-zwy-	2.d\	-zwy-	2.f/	nie-
1BB-/	-ćię-	2.B-\	-ćię-	.	.	.	.
.	.	.	.	4c/	-cię-	4e/	-zwy-
.	.	.	.	2.B-/	-żo-	4d/	-cię-
.	.	4A/	.	.	.	4c/	.
2BB-/	-żo-	4G/	-żo-	.	.	2d/	-(żo-
.	.	4F/	.	4A/	.	.	.
=9-	=9	=9-	=9	=9-	=9	=9-	=9
2C/	-(ny)	2E/	-(ny)	2G/	-(ny)	2e/	-ny)
2C/	Nád	2G/	Nád	2eny\	Nád	2cc\	Nád
2.F\	kró-	2.A/	kró-	2.f\	kró-	2.cc\	kró-
4F\	-les-	4B-\	-les-	4f\	-le(s-	4cc\	-les-
=10-	=10	=10-	=10	=10-	=10	=10-	=10
2F\	-twá	2c\	-twá	2.f\	-twá)	2a\	-twá
2F\	świá-	2A/	świa-	.	.	2cc\	świá-
.	.	.	.	4e\	.	.	.
2.G\	-(tá)	2B-\	-tá	4d\	świá-	2.b-\	-tá
.	.	.	.	4c\	.	.	.
!	!	!	!	!LO:N:vis=4	!	!	!
.	.	2B-\	te-	2d\	-tá	.	.
4F\	.	.	.	.	.	4a\	.
=11-	=11	=11-	=11	=11-	=11	=11-	=11
4Eny\	te-	2c\	-go	2e\	te-	4g/	te-
4D\	.	.	.	.	.	4f/	.
2C/	-go	2c\	wszyt-	2e\	-go	4g\	-go
.	.	.	.	.	.	4a\	.
1BB-/	wszyt-	2.d\	-ki	2.f\	wszyt-	2.b-\	wszyt-
.	.	.	.	.	.	.	.
.	.	4c\	.	4e\	-ki	4a\	-ki
=12-	=12	=12-	=12	=12-	=12	=12-	=12
2BB-/	-ki	2B-\	wy-	2d\	wy-	2g/	wy-
2AA/	wy-	2c\	-nie-	2A/	-nie-	1f/	-nie-
2BB-/	-nie-	2B-\	-śio-	2d\	-śio-	.	.
2C/	-śio-	2G/	.	4c/	.	2e/	-śio-
.	.	.	.	4B-/	.	.	.
=13-	=13	=13-	=13	=13-	=13	=13-	=13
000FF/	-ny.	000A\	-ny.	000c\	-ny.	000f/	-ny.
==	==	==	==	==	==	==	==
*-	*-	*-	*-	*-	*-	*-	*-
!!!RDF**kern: l = terminal long
!!!system-decoration: s1,s2,s3,s4
!!!ENC: Marta Lawrence
!!!END: 2020-02-15
!!!URL-scan: https://polona.pl/item/melodiae-na-psalterz-polski,Nzk3MTM4ODQ/232 Scan on Polona
!!!IIIF: https://polona.pl/iiif/item/Nzk3MTM4ODQ/manifest.json
